!! 00000] TT[00
!! NN
!!!OTL: Hao ba lu        , Die 8. Armee)
!!!ARE: Asia, China,ÿHebei
!! Ethnic Group: Han
!! IV, 35
!!!SCT: C0370
!!!YEM: Copyright 1995, estate of Helmut Schaffrath.
**kern
*ICvox
*Ivox
*M4/4
*k[b-]
*F:
{4cc
8dd
8ff
8dd
8cc
8b-
8a
=1
8cc
8g
8a
8cc
2g}
=2
{4f
8g
8a
8g
8f
8e
8d
=3
8e
8c
8d
8e
2c}
=4
{4f
8g
8a
8g
8f
8e
8d
=5
4c
4c
2b-}
=6
{8b-
8cc
8cc
8g
8g
8f
8e
8d
=7
8e
8c
8d
8e
2c}
==
!!!AGN: Xiaodiao. Geming lishi minge
!! enthaelt mongolische Einfluesse. Ein ganzer Teil der Oper:
!!    "Das weisshaarige Maedchen" ist danach arrangiert.
!!!ONB: ESAC (Essen Associative Code) Database: CHINA
!!!AMT: simple quadruple
!!!AIN: vox
!!!EED: Helmut Schaffrath
!!!EEV: 1.0
*-
